packages/core/assets/Icons/arrow_circle_chevron_up_outlined.svg

<svg viewBox="0 0 20 20" fill="none" xmlns="http://www.w3.org/2000/svg">
<path d="M9.99998 9.43754L11.9791 11.4167C12.1319 11.5695 12.3229 11.6459 12.5521 11.6459C12.7812 11.6459 12.9791 11.5695 13.1458 11.4167C13.3125 11.25 13.3958 11.0521 13.3958 10.823C13.3958 10.5938 13.3125 10.3959 13.1458 10.2292L10.5833 7.66671C10.4166 7.50004 10.2222 7.41671 9.99998 7.41671C9.77776 7.41671 9.58331 7.50004 9.41665 7.66671L6.83331 10.25C6.66665 10.4167 6.58679 10.6112 6.59373 10.8334C6.60068 11.0556 6.68748 11.25 6.85415 11.4167C7.02081 11.5695 7.21526 11.6493 7.43748 11.6563C7.6597 11.6632 7.85415 11.5834 8.02081 11.4167L9.99998 9.43754ZM9.99998 1.66671C11.1528 1.66671 12.2361 1.88546 13.25 2.32296C14.2639 2.76046 15.1458 3.35421 15.8958 4.10421C16.6458 4.85421 17.2396 5.73615 17.6771 6.75004C18.1146 7.76393 18.3333 8.84726 18.3333 10C18.3333 11.1528 18.1146 12.2362 17.6771 13.25C17.2396 14.2639 16.6458 15.1459 15.8958 15.8959C15.1458 16.6459 14.2639 17.2396 13.25 17.6771C12.2361 18.1146 11.1528 18.3334 9.99998 18.3334C8.8472 18.3334 7.76387 18.1146 6.74998 17.6771C5.73609 17.2396 4.85415 16.6459 4.10415 15.8959C3.35415 15.1459 2.7604 14.2639 2.3229 13.25C1.8854 12.2362 1.66665 11.1528 1.66665 10C1.66665 8.84726 1.8854 7.76393 2.3229 6.75004C2.7604 5.73615 3.35415 4.85421 4.10415 4.10421C4.85415 3.35421 5.73609 2.76046 6.74998 2.32296C7.76387 1.88546 8.8472 1.66671 9.99998 1.66671ZM9.99998 3.33337C8.13887 3.33337 6.56248 3.97921 5.27082 5.27087C3.97915 6.56254 3.33331 8.13893 3.33331 10C3.33331 11.8612 3.97915 13.4375 5.27081 14.7292C6.56248 16.0209 8.13887 16.6667 9.99998 16.6667C11.8611 16.6667 13.4375 16.0209 14.7291 14.7292C16.0208 13.4375 16.6666 11.8612 16.6666 10C16.6666 8.13893 16.0208 6.56254 14.7291 5.27087C13.4375 3.97921 11.8611 3.33337 9.99998 3.33337Z" fill="currentColor"/>
</svg>

<svg xmlns="http://www.w3.org/2000/svg" width="20" height="20" fill="none" viewBox="0 0 20 20">
  <path fill="#201F1F" d="m10 9.438 1.98 1.979a.777.777 0 0 0 .572.229c.23 0 .427-.077.594-.23a.811.811 0 0 0 .25-.593.811.811 0 0 0-.25-.594l-2.563-2.562a.8.8 0 0 0-.583-.25.8.8 0 0 0-.583.25L6.833 10.25a.764.764 0 0 0-.24.583.839.839 0 0 0 .261.584.88.88 0 0 0 .583.24.763.763 0 0 0 .584-.24L10 9.437Zm0-7.771c1.153 0 2.236.218 3.25.656a8.415 8.415 0 0 1 2.646 1.781 8.416 8.416 0 0 1 1.781 2.646 8.115 8.115 0 0 1 .656 3.25 8.114 8.114 0 0 1-.656 3.25 8.416 8.416 0 0 1-1.781 2.646 8.415 8.415 0 0 1-2.646 1.781 8.115 8.115 0 0 1-3.25.656 8.115 8.115 0 0 1-3.25-.656 8.415 8.415 0 0 1-2.646-1.781 8.416 8.416 0 0 1-1.781-2.646A8.114 8.114 0 0 1 1.667 10c0-1.153.218-2.236.656-3.25a8.415 8.415 0 0 1 1.781-2.646A8.415 8.415 0 0 1 6.75 2.323 8.115 8.115 0 0 1 10 1.667Zm0 1.666c-1.861 0-3.438.646-4.73 1.938C3.98 6.563 3.334 8.139 3.334 10c0 1.861.646 3.438 1.938 4.73 1.291 1.29 2.868 1.937 4.729 1.937 1.861 0 3.438-.646 4.73-1.938 1.29-1.291 1.937-2.868 1.937-4.729 0-1.861-.646-3.437-1.938-4.73-1.292-1.29-2.869-1.936-4.73-1.936Z"/>
</svg>
